X:278
T:Ronde de Loudeac
M:4/4
L:1/8
R:reel
D:Lunasa: The Merry Sisters of Fate
Z:Michael Abraham Shulman
K:Bm
Bcde f2ff|gfef edcF|Bcde f2ff|gfef edc2|
Bcde f2ff|afef edcF|Bcde f2ff|gfef edc2||
f2fe fdB2|(3Bcd cB ABcd|efec d2B2|dcB2 ABcd|
efec d2B2|dcB2 ABc2|(3def ec B2BB||
